X: 14
T:Branle des Chevaux
M:2/4
L:1/16
S:French Creek
K:G
G3A B2B2|c2B2 A2c2|B2A2 G2F2|E4D4|G3A B2B2|c2B2 A2c2|!
B2G2 A2F2|G4G4:||d2cB A2AB|c2BA G2B2|A2G2 F2G2|A4A4|!
d2cB A2AB|c2BA G2B2|A2G2 G2F2|G4G4:||
K:F
B2AG B2AG|F2G2A4|!
D2E2 F2G2|A4{AB}A2G2|B2AG B2AG|F2G2A4|D2E2 F2G2|G2F2G4:||
